X: 21261
T: WHITE LADY SETT (tune 1)
C:
%R: reel, march
B: Elias Howe "The Musician's Companion" 1843 p.126 #1
S: http://imslp.org/wiki/The_Musician's_Companion_(Howe,_Elias)
Z: 2015 John Chambers <jc:trillian.mit.edu>
N: Strain 1 has only 7 bars.
M: 2/4
L: 1/16
K: D
% - - - - - - - - - - - - - - - - - - - - - - - - - - - - -
V: 1 name="1"
(3(ABc) |\
d3c d>cd>f | A2A>A A>Bc>d | e2^d2 edeg | A2A>A Agfe |\
fagf e2ba | ffed eedc | A2A2A2 H|]
a2 |\
^g2a2 g2a2 | fgfe d2ba | ^g2a2 g2a2 | f2d>d dABc |\
d2a2 d2^d2 | e2b>g egfe | d2cd ecdB | c2A>A A>gf>"^D.C."e |]
f>a |\
g>fe>d c>AB>c | d2f2 A2fa | g>fe>d c>AB>c | d3f B2f>f |\
f2f>f f2f>f | e>dc>d B2e>e | e2e>e e2e>e | d>cB>c A>AB>"^D.C."c |]
% - - - - - - - - - - Dance description - - - - - - - - - -
%%begintext align
%% Right and left four,
%% balance four,
%% ladies chain,
%% promenade four,
%% sides the same.
%%endtext
% - - - - - - - - - - - - - - - - - - - - - - - - - - - - -
%%sep 1 1 300

%%sep 1 1 500

